X: 27038
T: Miss Gunning's
R: reel
M: 4/4
K: Eminor
|:F|G2 BG EFGE|(3FED FA dAFD|~G2 BG EFGB|(3ABc BA GEEF|
G2 BG EFGE|(3FED FA dAFD|GEBE efga|bgaf ge e:|
|:f|(3gfe bf g2 fe|dfaf dAFd|egbg edeB|(3ABc BA GEEf|
(3gfe bf g2 fe|dfaf dAFD|(3GFE BE cEBE|(3ABc BA GE E:|

